src/topics/icons/google-data-studio.svg

<svg height="257" preserveAspectRatio="xMidYMid" viewBox="0 0 256 257" width="256" xmlns="http://www.w3.org/2000/svg" xmlns:xlink="http://www.w3.org/1999/xlink"><linearGradient id="a" x1="32.813224%" x2="113.876316%" y1="32.532384%" y2="114.132318%"><stop offset="0" stop-color="#263238" stop-opacity=".2"/><stop offset=".4313" stop-color="#263238" stop-opacity="0"/></linearGradient><linearGradient id="b" x1="0%" x2="100%" y1="49.967127%" y2="49.967127%"><stop offset="0" stop-color="#fff" stop-opacity=".1"/><stop offset="1" stop-color="#fff" stop-opacity="0"/></linearGradient><path d="m256 20.5473684c0-11.28421051-9.263158-20.5473684-20.547368-20.5473684h-214.9052636c-11.28421051 0-20.5473684 9.26315789-20.5473684 20.5473684v215.0736846c0 11.28421 9.26315789 20.547368 20.5473684 20.547368h105.0947366c72.252632 0 130.357895-55.073684 130.357895-129.515789 0-21.221053 0-106.1052636 0-106.1052636z" fill="#3367d6"/><path d="m256 126.484211c0-7.242106 0-21.894737 0-38.0631584l-87.242105-86.73684207-168.757895 166.73684247 87.7473684 87.578947h37.8947366c72.252632 0 130.357895-55.073684 130.357895-129.515789z" fill="url(#a)"/><path d="m79.3263158 1.68421053h156.1263162c11.28421 0 20.547368 9.26315787 20.547368 20.54736837v-1.6842105c0-11.28421051-9.263158-20.5473684-20.547368-20.5473684h-156.1263162z" fill="#fff" opacity=".2"/><path d="m20.5473684 0c-11.28421051 0-20.5473684 9.26315789-20.5473684 20.5473684v147.8736846h84.0421053c47.8315787 0 84.3789477-38.736842 84.3789477-84.5473688v-83.8736842z"/><path d="m20.5473684 0c-11.28421051 0-20.5473684 9.26315789-20.5473684 20.5473684v147.8736846h84.0421053c47.8315787 0 84.3789477-38.736842 84.3789477-84.5473688v-83.8736842z" fill="#64b5f6"/><path d="m168.421053 1.68421053h-147.8736846c-11.28421051 0-20.5473684 9.26315787-20.5473684 20.54736837v-1.6842105c0-11.28421051 9.26315789-20.5473684 20.5473684-20.5473684h147.8736846z" fill="#fff" opacity=".2"/><path d="m125.642105 254.315789h-105.0947366c-11.28421051 0-20.5473684-9.263157-20.5473684-20.547368v1.684211c0 11.28421 9.26315789 20.547368 20.5473684 20.547368h105.0947366c72.252632 0 130.357895-55.073684 130.357895-129.515789 0-.505264 0-1.010527 0-1.684211 0 74.442105-58.105263 129.515789-130.357895 129.515789z" fill="#263238"/><path d="m256 20.5473684c0-11.28421051-9.263158-20.5473684-20.547368-20.5473684h-214.9052636c-11.28421051 0-20.5473684 9.26315789-20.5473684 20.5473684v215.0736846c0 11.28421 9.26315789 20.547368 20.5473684 20.547368h105.0947366c72.252632 0 130.357895-55.073684 130.357895-129.515789 0-21.221053 0-106.1052636 0-106.1052636z" fill="url(#b)"/></svg>

<?xml version="1.0" encoding="UTF-8"?>
<svg width="256px" height="257px" viewBox="0 0 256 257" version="1.1" xmlns="http://www.w3.org/2000/svg" xmlns:xlink="http://www.w3.org/1999/xlink" preserveAspectRatio="xMidYMid">
    <defs>
        <linearGradient x1="32.8132237%" y1="32.5323841%" x2="113.876316%" y2="114.132318%" id="linearGradient-1">
            <stop stop-color="#263238" stop-opacity="0.2" offset="0%"></stop>
            <stop stop-color="#263238" stop-opacity="0" offset="43.13%"></stop>
        </linearGradient>
        <linearGradient x1="0%" y1="49.9671269%" x2="100%" y2="49.9671269%" id="linearGradient-2">
            <stop stop-color="#FFFFFF" stop-opacity="0.1" offset="0%"></stop>
            <stop stop-color="#FFFFFF" stop-opacity="0" offset="100%"></stop>
        </linearGradient>
    </defs>
		<g>
				<path d="M256,20.5473684 C256,9.26315789 246.736842,0 235.452632,0 L20.5473684,0 C9.26315789,-5.98351777e-15 0,9.26315789 0,20.5473684 L0,235.621053 C0,246.905263 9.26315789,256.168421 20.5473684,256.168421 L125.642105,256.168421 C197.894737,256.168421 256,201.094737 256,126.652632 C256,105.431579 256,20.5473684 256,20.5473684 Z" fill="#3367D6" fill-rule="nonzero"></path>
				<path d="M256,126.484211 C256,119.242105 256,104.589474 256,88.4210526 L168.757895,1.68421053 L0,168.421053 L87.7473684,256 L125.642105,256 C197.894737,256 256,200.926316 256,126.484211 Z" fill="url(#linearGradient-1)" fill-rule="nonzero"></path>
				<path d="M79.3263158,1.68421053 L235.452632,1.68421053 C246.736842,1.68421053 256,10.9473684 256,22.2315789 L256,20.5473684 C256,9.26315789 246.736842,0 235.452632,0 L79.3263158,0 L79.3263158,1.68421053 Z" fill="#FFFFFF" fill-rule="nonzero" opacity="0.2"></path>
				<path d="M20.5473684,0 C9.26315789,0 0,9.26315789 0,20.5473684 L0,168.421053 C0,168.421053 50.6947368,168.421053 84.0421053,168.421053 C131.873684,168.421053 168.421053,129.684211 168.421053,83.8736842 L168.421053,0 L20.5473684,0 Z" fill="#000000" fill-rule="nonzero"></path>
				<path d="M20.5473684,0 C9.26315789,0 0,9.26315789 0,20.5473684 L0,168.421053 C0,168.421053 50.6947368,168.421053 84.0421053,168.421053 C131.873684,168.421053 168.421053,129.684211 168.421053,83.8736842 L168.421053,0 L20.5473684,0 Z" fill="#64B5F6"></path>
				<path d="M168.421053,1.68421053 L20.5473684,1.68421053 C9.26315789,1.68421053 0,10.9473684 0,22.2315789 L0,20.5473684 C0,9.26315789 9.26315789,0 20.5473684,0 L168.421053,0 L168.421053,1.68421053 Z" fill="#FFFFFF" fill-rule="nonzero" opacity="0.2"></path>
				<path d="M125.642105,254.315789 L20.5473684,254.315789 C9.26315789,254.315789 0,245.052632 0,233.768421 L0,235.452632 C0,246.736842 9.26315789,256 20.5473684,256 L125.642105,256 C197.894737,256 256,200.926316 256,126.484211 C256,125.978947 256,125.473684 256,124.8 C256,199.242105 197.894737,254.315789 125.642105,254.315789 Z" fill="#263238" fill-rule="nonzero"></path>
				<path d="M256,20.5473684 C256,9.26315789 246.736842,0 235.452632,0 L20.5473684,0 C9.26315789,-5.98351777e-15 0,9.26315789 0,20.5473684 L0,235.621053 C0,246.905263 9.26315789,256.168421 20.5473684,256.168421 L125.642105,256.168421 C197.894737,256.168421 256,201.094737 256,126.652632 C256,105.431579 256,20.5473684 256,20.5473684 Z" fill="url(#linearGradient-2)" fill-rule="nonzero"></path>
		</g>
</svg>
